images/icons/generic-review.svg

<svg fill="none" height="24" viewBox="0 0 24 24" width="24" xmlns="http://www.w3.org/2000/svg"><path d="m10.2 15.4h7.8c.34 0 .625-.115.855-.345s.345-.515.345-.855-.115-.625-.345-.855-.515-.345-.855-.345h-5.4zm-4.8 0h1.86c.16 0 .31-.03.45-.09s.27-.15.39-.27l6.72-6.65999c.12-.12.18-.27.18-.45s-.06-.33-.18-.45l-2.1-2.1c-.12-.12-.27-.18-.45-.18s-.33.06-.45.18l-6.66 6.71999c-.12.12-.21.25-.27.39s-.09.29-.09.45v1.86c0 .16.06.3.18.42s.26.18.42.18zm-5.4 6.69v-18.69c0-.66.235-1.225.705-1.695s1.035-.705 1.695-.705h19.2c.66 0 1.225.235 1.695.705s.705 1.035.705 1.695v14.4c0 .66-.235 1.225-.705 1.695s-1.035.705-1.695.705h-16.8l-2.76 2.76c-.38.38-.815.465-1.305.255s-.735-.585-.735-1.125z" fill="#fff"/></svg>

<svg width="24" height="24" viewBox="0 0 24 24" fill="none" xmlns="http://www.w3.org/2000/svg">
<path d="M10.2 15.4H18C18.34 15.4 18.625 15.285 18.855 15.055C19.085 14.825 19.2 14.54 19.2 14.2C19.2 13.86 19.085 13.575 18.855 13.345C18.625 13.115 18.34 13 18 13H12.6L10.2 15.4ZM5.4 15.4H7.26C7.42 15.4 7.57 15.37 7.71 15.31C7.85 15.25 7.98 15.16 8.1 15.04L14.82 8.38001C14.94 8.26001 15 8.11001 15 7.93001C15 7.75001 14.94 7.60001 14.82 7.48001L12.72 5.38001C12.6 5.26001 12.45 5.20001 12.27 5.20001C12.09 5.20001 11.94 5.26001 11.82 5.38001L5.16 12.1C5.04 12.22 4.95 12.35 4.89 12.49C4.83 12.63 4.8 12.78 4.8 12.94V14.8C4.8 14.96 4.86 15.1 4.98 15.22C5.1 15.34 5.24 15.4 5.4 15.4ZM0 22.09V3.4C0 2.74 0.235 2.175 0.705 1.705C1.175 1.235 1.74 1 2.4 1H21.6C22.26 1 22.825 1.235 23.295 1.705C23.765 2.175 24 2.74 24 3.4V17.8C24 18.46 23.765 19.025 23.295 19.495C22.825 19.965 22.26 20.2 21.6 20.2H4.8L2.04 22.96C1.66 23.34 1.225 23.425 0.735 23.215C0.245 23.005 0 22.63 0 22.09Z" fill="white"/>
</svg>
